X: 31969
T: Peata Geal Mo Mhathair
R: polka
M: 2/4
K: Gmajor
|:BG G>A|Bc d2|ec dB|ce dc|
BG G>A|Bc d2|ec dB|c2 BA:|
|:G2 FD|EC CE|DE FD|GB dB|
G2 FD|EC CE|DE FD|G2 G2:|

